apps/trade/public/tokens/snx.svg

<svg width="24" height="24" viewBox="0 0 24 24" fill="none" xmlns="http://www.w3.org/2000/svg">
    <g clip-path="url(#clip0_11541_1337)">
        <path
            d="M11.9987 23.9974C18.6254 23.9974 23.9974 18.6254 23.9974 11.9987C23.9974 5.372 18.6254 0 11.9987 0C5.372 0 0 5.372 0 11.9987C0 18.6254 5.372 23.9974 11.9987 23.9974Z"
            fill="url(#paint0_linear_11541_1337)" />
        <path
            d="M8.04657 9.01551C7.95066 8.89644 7.80514 8.8303 7.6497 8.8303H4.44497C4.41851 8.8303 4.39536 8.82038 4.37552 8.80384C4.35898 8.78731 4.34906 8.76746 4.34906 8.74431V6.58468C4.34906 6.56153 4.35898 6.54168 4.37552 6.52515C4.39536 6.5053 4.41851 6.49538 4.44497 6.49869H7.83159C8.68487 6.49869 9.42238 6.84926 10.0441 7.54709L10.8677 8.55249L9.26363 10.5071L8.04657 9.01551ZM13.9665 7.53716C14.585 6.84595 15.3258 6.49869 16.189 6.49869H19.5657C19.5889 6.49538 19.612 6.5053 19.6286 6.51853C19.6451 6.53507 19.6517 6.55822 19.6484 6.58468V8.74431C19.6484 8.76746 19.6418 8.78731 19.6286 8.80384C19.612 8.82368 19.5889 8.83361 19.5657 8.8303H16.361C16.2089 8.82699 16.0633 8.89644 15.9641 9.01551L13.6027 11.8895L15.974 14.7833C16.07 14.8925 16.2122 14.9586 16.3577 14.9553H19.5624C19.5856 14.952 19.612 14.9652 19.6252 14.9818C19.6385 15.0016 19.6484 15.0281 19.6451 15.0512V17.2109C19.6451 17.234 19.6385 17.2539 19.6252 17.2704C19.6087 17.2902 19.5856 17.3002 19.5624 17.2969H16.189C15.3258 17.2969 14.5916 16.9463 13.9765 16.2485L12.012 13.8507L10.0475 16.2485C9.429 16.9463 8.68817 17.2969 7.82498 17.2969H4.44497C4.42182 17.3002 4.39536 17.2869 4.38213 17.2704C4.3656 17.2506 4.35898 17.2241 4.36229 17.2009V15.0413C4.36229 15.0182 4.3689 14.9983 4.38213 14.9818C4.39867 14.9619 4.42182 14.952 4.44497 14.9553H7.6497C7.80183 14.9553 7.94735 14.8859 8.04657 14.7701L10.3649 11.9391L13.9665 7.53716Z"
            fill="#00D1FF" />
    </g>
    <defs>
        <linearGradient id="paint0_linear_11541_1337" x1="12.0004" y1="-6.94522e-05" x2="12.0004"
            y2="6.34985" gradientUnits="userSpaceOnUse">
            <stop stop-color="#090220" />
            <stop offset="1" stop-color="#170659" />
        </linearGradient>
        <clipPath id="clip0_11541_1337">
            <rect width="24" height="24" fill="white" />
        </clipPath>
    </defs>
</svg>

<svg width="24" height="24" fill="none" xmlns="http://www.w3.org/2000/svg">
    <g clip-path="url(#a)">
        <path d="M11.999 23.997c6.626 0 11.998-5.372 11.998-11.998C23.997 5.372 18.625 0 12 0 5.372 0 0 5.372 0 11.999c0 6.626 5.372 11.998 11.999 11.998Z" fill="url(#b)"/>
        <path d="M8.047 9.016a.505.505 0 0 0-.397-.186H4.445a.107.107 0 0 1-.07-.026.083.083 0 0 1-.026-.06v-2.16c0-.022.01-.042.027-.059.02-.02.043-.03.069-.026h3.387c.853 0 1.59.35 2.212 1.048l.824 1.005-1.604 1.955-1.217-1.491Zm5.92-1.479c.618-.691 1.359-1.038 2.222-1.038h3.377a.085.085 0 0 1 .063.02c.016.016.023.04.02.066v2.16a.092.092 0 0 1-.02.059.07.07 0 0 1-.063.026H16.36a.505.505 0 0 0-.397.186l-2.361 2.873 2.371 2.894c.096.11.238.176.384.172h3.204c.024-.003.05.01.063.027.014.02.023.046.02.07v2.159a.092.092 0 0 1-.02.06.07.07 0 0 1-.063.026H16.19c-.863 0-1.597-.35-2.213-1.049l-1.964-2.397-1.965 2.397c-.618.698-1.359 1.049-2.222 1.049h-3.38a.074.074 0 0 1-.063-.027.09.09 0 0 1-.02-.07v-2.159c0-.023.007-.043.02-.06a.07.07 0 0 1 .063-.026H7.65c.152 0 .297-.07.397-.185l2.318-2.83 3.601-4.403Z" fill="#00D1FF"/>
    </g>
    <defs>
        <linearGradient id="b" x1="12" y1="0" x2="12" y2="6.35" gradientUnits="userSpaceOnUse">
            <stop stop-color="#090220"/>
            <stop offset="1" stop-color="#170659"/>
        </linearGradient>
        <clipPath id="a">
            <path fill="#fff" d="M0 0h24v24H0z"/>
        </clipPath>
    </defs>
</svg>
